build/images/snezhinka.svg

<svg width="44" height="44" viewBox="0 0 44 44" fill="none" xmlns="http://www.w3.org/2000/svg">
<path d="M38.8604 38.9167C38.0142 38.9167 37.1681 38.9167 36.2697 38.9167C36.2697 40.5835 36.2697 42.2504 36.2697 43.9793C35.3818 43.9793 34.5461 43.9793 33.6686 43.9793C33.6686 40.5628 33.6686 37.1671 33.6686 33.7195C32.812 33.7195 31.9867 33.7195 31.0988 33.7195C31.0988 34.5271 31.0988 35.3346 31.0988 36.2249C30.2108 36.2249 29.396 36.2249 28.4872 36.2249C28.4872 37.136 28.4872 37.9435 28.4872 38.8339C27.5992 38.8339 26.7844 38.8339 25.9174 38.8339C25.9174 39.7242 25.9174 40.5421 25.9174 41.4325C25.0294 41.4325 24.2042 41.4325 23.3162 41.4325C23.3162 42.3228 23.3162 43.1407 23.3162 44C22.4179 44 21.5926 44 20.7151 44C20.7151 43.1718 20.7151 42.3642 20.7151 41.4842C19.8376 41.4842 19.0228 41.4842 18.1244 41.4842C18.1244 40.5835 18.1244 39.7656 18.1244 38.8753C17.226 38.8753 16.4008 38.8753 15.5128 38.8753C15.5128 37.9849 15.5128 37.1671 15.5128 36.2767C14.6353 36.2767 13.831 36.2767 12.943 36.2767C12.943 35.3864 12.943 34.5788 12.943 33.7195C12.0342 33.7195 11.2089 33.7195 10.3314 33.7195C10.3314 37.1464 10.3314 40.5318 10.3314 43.9793C9.45394 43.9793 8.63912 43.9793 7.74074 43.9793C7.74074 42.2918 7.74074 40.6146 7.74074 38.896C6.84235 38.896 6.01709 38.896 5.1396 38.896C5.1396 39.7346 5.1396 40.5421 5.1396 41.4118C4.27255 41.4118 3.46818 41.4118 2.5698 41.4118C2.5698 42.3021 2.5698 43.1407 2.5698 44C1.67141 44 0.856599 44 0.0104449 44C0.0104449 43.1511 0.0104449 42.3332 0.0104449 41.4428C0.846152 41.4428 1.65052 41.4428 2.53846 41.4428C2.53846 40.5628 2.53846 39.7449 2.53846 38.8546C3.43685 38.8546 4.26211 38.8546 5.11871 38.8546C5.11871 37.9849 5.11871 37.1774 5.11871 36.2767C3.4264 36.2767 1.73409 36.2767 0.0104449 36.2767C0.0104449 35.3656 0.0104449 34.5478 0.0104449 33.6574C3.45774 33.6574 6.8528 33.6574 10.3001 33.6574C10.3001 32.7774 10.3001 31.9595 10.3001 31.0588C9.45394 31.0588 8.62868 31.0588 7.75118 31.0588C7.75118 30.1788 7.75118 29.3713 7.75118 28.4913C6.87369 28.4913 6.03798 28.4913 5.16049 28.4913C5.16049 27.6009 5.16049 26.7727 5.16049 25.8823C4.27255 25.8823 3.44729 25.8823 2.54891 25.8823C2.54891 24.992 2.54891 24.1741 2.54891 23.3045C1.68186 23.3045 0.887938 23.3045 0.0313376 23.3045C0.0313376 22.4348 0.0313376 21.6169 0.0313376 20.7369C0.835706 20.7369 1.64007 20.7369 2.52801 20.7369C2.52801 19.8362 2.52801 19.008 2.52801 18.1073C3.43685 18.1073 4.26211 18.1073 5.12915 18.1073C5.12915 17.2376 5.12915 16.4301 5.12915 15.5501C5.9962 15.5501 6.82146 15.5501 7.73029 15.5501C7.73029 14.6494 7.73029 13.8108 7.73029 12.9308C8.62868 12.9308 9.43305 12.9308 10.3837 12.9308C10.3837 12.0094 10.3837 11.1398 10.3837 10.2701L10.3628 10.2805C11.188 10.2805 12.0237 10.2805 12.9221 10.2805C12.9221 9.45224 12.9221 8.63435 12.9221 7.75435C13.7996 7.75435 14.604 7.75435 15.4815 7.75435C15.4815 6.87435 15.4815 6.05647 15.4815 5.16611C16.3694 5.16611 17.1947 5.16611 18.0931 5.16611C18.0931 4.27576 18.0931 3.45788 18.0931 2.58823C18.981 2.58823 19.7854 2.58823 20.6733 2.58823C20.6733 1.69788 20.6733 0.869647 20.6733 -9.03659e-07C21.5613 -9.42472e-07 22.3761 -9.78089e-07 23.2745 -1.01736e-06C23.2745 0.828235 23.2745 1.66682 23.2745 2.56753C24.1833 2.56753 25.0085 2.56753 25.8756 2.56753C25.8756 3.43717 25.8756 4.2447 25.8756 5.13505C26.7426 5.13505 27.5679 5.13505 28.4558 5.13505C28.4558 6.03576 28.4558 6.85364 28.4558 7.744C29.3438 7.744 30.169 7.744 31.0674 7.744C31.0674 8.63435 31.0674 9.45223 31.0674 10.3115C31.9554 10.3115 32.7597 10.3115 33.6477 10.3115C33.6477 6.87435 33.6477 3.45788 33.6477 0.0103478C34.5356 0.0103478 35.34 0.0103477 36.2384 0.0103477C36.2384 1.70823 36.2384 3.40611 36.2384 5.1247C37.1367 5.1247 37.9411 5.1247 38.8291 5.1247C38.8291 4.29647 38.8291 3.47858 38.8291 2.54682C39.7588 2.54682 40.6258 2.54682 41.4824 2.54682L41.472 2.53647C41.472 3.37506 41.472 4.224 41.472 5.14541C40.584 5.14541 39.7588 5.14541 38.8917 5.14541C38.8917 6.04611 38.8917 6.85365 38.8917 7.73364C40.5945 7.73364 42.2764 7.73364 44 7.73364C44 8.60329 44 9.42117 44 10.3115C40.5736 10.3115 37.1576 10.3115 33.6999 10.3115C33.6999 11.2019 33.6999 12.0198 33.6999 12.9101C34.5356 12.9101 35.3609 12.9101 36.2488 12.9101C36.2488 13.8005 36.2488 14.6184 36.2488 15.5191C37.1367 15.5191 37.962 15.5191 38.8395 15.5191C38.8395 16.3991 38.8395 17.2066 38.8395 18.0866C39.717 18.0866 40.5423 18.0866 41.4302 18.0866C41.4302 18.9769 41.4302 19.7948 41.4302 20.6955C42.3181 20.6955 43.133 20.6955 44 20.6955C44 21.5962 44 22.4038 44 23.3045C43.1538 23.3045 42.3286 23.3045 41.4511 23.3045C41.4511 24.1845 41.4511 24.992 41.4511 25.872C40.5736 25.872 39.7483 25.872 38.8499 25.872C38.8499 26.7727 38.8499 27.5906 38.8499 28.4809C37.9516 28.4809 37.1263 28.4809 36.2593 28.4809C36.2593 29.3609 36.2593 30.1685 36.2593 31.0485C35.3818 31.0485 34.5565 31.0485 33.6999 31.0485C33.6999 31.9388 33.6999 32.7567 33.6999 33.6367C37.1263 33.6367 40.5318 33.6367 43.9895 33.6367C43.9895 34.5271 43.9895 35.3553 43.9895 36.256C42.3077 36.256 40.6258 36.256 38.8395 36.256C38.8395 37.1878 38.8395 38.0678 38.8395 38.9374L38.8604 38.9167ZM28.5185 15.4984C28.5185 14.6598 28.5185 13.8212 28.5185 12.9101C27.5783 12.9101 26.7531 12.9101 25.8756 12.9101C25.8756 12.0198 25.8756 11.2226 25.8756 10.384C24.9981 10.384 24.1728 10.384 23.2745 10.384C23.2745 12.1026 23.2744 13.7798 23.2744 15.4673C22.3865 15.4673 21.5612 15.4673 20.6838 15.4673C20.6838 13.7487 20.6838 12.0819 20.6838 10.384C19.8063 10.384 18.981 10.384 18.0826 10.384C18.0826 11.2433 18.0826 12.0612 18.0826 12.9412C17.1947 12.9412 16.3903 12.9412 15.5546 12.9412C15.5546 13.8315 15.5546 14.6494 15.5546 15.5294C16.4008 15.5294 17.2051 15.5294 18.0931 15.5294C18.0931 16.4198 18.0931 17.2376 18.0931 18.1176C18.9914 18.1176 19.8167 18.1176 20.6733 18.1176C20.6733 19.008 20.6733 19.8362 20.6733 20.6645C19.8272 20.6645 18.9914 20.6645 18.0931 20.6645C18.0931 19.7948 18.0931 18.9976 18.0931 18.1176C17.2051 18.1176 16.3799 18.1176 15.4919 18.1176C15.4919 17.2169 15.4919 16.3991 15.4919 15.5605C14.6144 15.5605 13.7996 15.5605 12.9221 15.5605C12.9221 16.4198 12.9221 17.2376 12.9221 18.128C12.0237 18.128 11.1985 18.128 10.3732 18.128C10.3732 19.0287 10.3732 19.8466 10.3732 20.7266C12.0969 20.7266 13.7787 20.7266 15.4815 20.7266C15.4815 21.6066 15.4815 22.4245 15.4815 23.3045C13.7578 23.3045 12.076 23.3045 10.3732 23.3045C10.3732 24.1948 10.3732 25.0024 10.3732 25.9031C11.2403 25.9031 12.0655 25.9031 12.9535 25.9031C12.9535 26.8038 12.9535 27.6216 12.9535 28.4188C13.8414 28.4188 14.6458 28.4188 15.5337 28.4188C15.5337 27.5595 15.5337 26.7416 15.5337 25.8513C16.4321 25.8513 17.2574 25.8513 18.1453 25.8513C18.1453 24.9506 18.1453 24.1327 18.1453 23.2631C19.0228 23.2631 19.8376 23.2631 20.6733 23.2631C20.6733 22.352 20.6733 21.4927 20.6733 20.6334C21.5508 20.6438 22.4387 20.6438 23.3162 20.6541C23.3162 21.5134 23.3162 22.3624 23.3162 23.2838C24.2042 23.2838 25.0294 23.2838 25.9278 23.2838C25.9278 24.1845 25.9278 25.0127 25.9278 25.9031C26.8053 25.9031 27.6201 25.9031 28.5081 25.9031C28.5081 26.7727 28.5081 27.5906 28.5081 28.4292C29.396 28.4292 30.2004 28.4292 31.0883 28.4292C31.0883 27.5802 31.0883 26.7624 31.0883 25.872C31.9867 25.872 32.812 25.872 33.6372 25.872C33.6372 24.9713 33.6372 24.1638 33.6372 23.2734C31.924 23.2734 30.2422 23.2734 28.5603 23.2734C28.5603 22.3831 28.5603 21.5755 28.5603 20.6852C30.2839 20.6852 31.9554 20.6852 33.6372 20.6852C33.6372 19.7948 33.6372 18.9769 33.6372 18.0866C32.7702 18.0866 31.9449 18.0866 31.0779 18.0866C31.0779 17.2066 31.0779 16.3991 31.0779 15.488C30.169 15.4984 29.3438 15.4984 28.5185 15.4984ZM20.7151 33.616C20.7151 31.8767 20.7151 30.1995 20.7151 28.5224C21.603 28.5224 22.4283 28.5224 23.3162 28.5224C23.3162 30.2513 23.3162 31.9285 23.3162 33.616C24.1937 33.616 25.0085 33.616 25.886 33.616C25.886 32.7567 25.886 31.9492 25.886 31.0485C26.7844 31.0485 27.6097 31.0485 28.4349 31.0485C28.4349 30.1581 28.4349 29.3402 28.4349 28.4602C27.5679 28.4602 26.7426 28.4602 25.8547 28.4602C25.8547 27.5699 25.8547 26.752 25.8547 25.8616C24.9668 25.8616 24.1519 25.8616 23.2744 25.8616C23.2744 24.9816 23.2744 24.1741 23.2744 23.3355C22.397 23.3355 21.5717 23.3355 20.6733 23.3355C20.6733 24.1948 20.6733 25.0127 20.6733 25.9031C19.7749 25.9031 18.9497 25.9031 18.0617 25.9031C18.0617 26.8038 18.0617 27.6216 18.0617 28.5016C17.1842 28.5016 16.3799 28.5016 15.5546 28.5016C15.5546 29.3816 15.5546 30.1995 15.5546 31.0795C16.4112 31.0795 17.2156 31.0795 18.0931 31.0795C18.0931 31.9595 18.0931 32.7774 18.0931 33.6264C18.9914 33.616 19.8063 33.616 20.7151 33.616Z" fill="#B9B9B9"/>
<path d="M5.10826 5.14541C5.95441 5.14541 6.80057 5.14541 7.7094 5.14541C7.7094 3.42682 7.7094 1.74964 7.7094 0.0310551C8.58689 0.0310551 9.41215 0.031055 10.2896 0.031055C10.3105 3.44752 10.3419 6.87435 10.3628 10.2908C6.90503 10.2908 3.45774 10.3012 -1.47302e-06 10.3012C-1.4728e-06 9.47294 -1.47259e-06 8.65505 -1.47235e-06 7.7647C1.69231 7.7647 3.36372 7.7647 5.10826 7.7647C5.10826 6.84329 5.10826 5.984 5.10826 5.12471C5.11871 5.13506 5.10826 5.14541 5.10826 5.14541Z" fill="#B9B9B9"/>
<path d="M38.8395 38.9271C39.6857 38.9271 40.5318 38.9271 41.4302 38.9271C41.4302 39.7346 41.4302 40.5318 41.4302 41.4014C42.3077 41.4014 43.133 41.4014 44 41.4014C44 42.2918 44 43.1096 44 43.9793C43.1747 43.9793 42.3495 43.9793 41.4615 43.9793C41.4615 43.1614 41.4615 42.3435 41.4615 41.4532C40.5736 41.4532 39.7483 41.4532 38.8499 41.4532C38.8499 40.5525 38.8499 39.7346 38.8499 38.9167C38.8604 38.9167 38.8395 38.9271 38.8395 38.9271Z" fill="#B9B9B9"/>
<path d="M2.49667 2.55717C3.34283 2.55717 4.18898 2.55717 5.10826 2.55717C5.10826 3.45787 5.10826 4.30682 5.10826 5.14541L5.11871 5.13506C4.283 5.13506 3.43685 5.13506 2.50712 5.13506C2.50712 4.24471 2.50712 3.39576 2.50712 2.54682L2.49667 2.55717Z" fill="#B9B9B9"/>
<path d="M41.4824 2.55717C41.4824 1.71858 41.4824 0.879992 41.4824 0.0207005C42.339 0.0207005 43.1434 0.0207043 44 0.0207043C44 0.84894 44 1.66682 44 2.54682C43.1538 2.54682 42.3077 2.54682 41.472 2.54682C41.472 2.53647 41.4824 2.55717 41.4824 2.55717Z" fill="#B9B9B9"/>
<path d="M2.50712 2.53647C1.69231 2.53647 0.877491 2.53647 0.0104449 2.53647C0.0104449 1.69788 0.0104449 0.869644 0.0104449 0.0103493C0.846152 0.0103492 1.65052 0.0103492 2.49667 0.0103492C2.49667 0.879997 2.49667 1.70823 2.49667 2.54682C2.49667 2.55717 2.50712 2.53647 2.50712 2.53647Z" fill="#B9B9B9"/>
<path d="M28.529 15.488C28.529 16.3473 28.529 17.1962 28.529 18.1176C27.5888 18.1176 26.7844 18.1176 25.8965 18.1176C25.8965 18.9976 25.8965 19.8052 25.8965 20.6852C24.9772 20.6852 24.1311 20.6852 23.2849 20.6852C23.2849 19.8569 23.2849 19.0287 23.2849 18.1384C24.1519 18.1384 24.9772 18.1384 25.8651 18.1384C25.8651 17.2584 25.8651 16.4405 25.8651 15.488C26.8053 15.488 27.6724 15.488 28.529 15.488Z" fill="#B9B9B9"/>
</svg>

<svg width="44" height="44" fill="none" xmlns="http://www.w3.org/2000/svg"><path d="M38.86 38.917h-2.59v5.062h-2.601V33.72h-2.57v2.506h-2.612v2.609h-2.57v2.598h-2.6V44h-2.602v-2.516h-2.59v-2.609h-2.612v-2.598h-2.57v-2.558h-2.612v10.26h-2.59v-5.083H5.14v2.516H2.57V44H.01v-2.557h2.528v-2.588h2.58v-2.578H.01v-2.62H10.3V31.06H7.751v-2.57h-2.59v-2.609H2.548v-2.578H.03v-2.567h2.497v-2.63h2.601V15.55H7.73v-2.62h2.654v-2.66l-.021.01h2.56V7.755h2.559V5.166h2.611V2.588h2.58V0h2.602v2.568h2.6v2.567h2.58v2.609h2.612v2.568h2.58V.01h2.591v5.115h2.591V2.547h2.653l-.01-.01v2.608h-2.58v2.589H44v2.578H33.7v2.598h2.549v2.61h2.59v2.567h2.591v2.608H44v2.61h-2.549v2.567H38.85v2.609h-2.59v2.567H33.7v2.589h10.29v2.619h-5.15v2.681l.02-.02ZM28.52 15.498V12.91h-2.643v-2.526h-2.602v5.083h-2.59v-5.083h-2.601v2.557h-2.528v2.588h2.538v2.589h2.58v2.547h-2.58v-2.547h-2.601V15.56h-2.57v2.567h-2.549v2.599h5.109v2.578h-5.109v2.598h2.58v2.516h2.58V25.85h2.612v-2.588h2.528v-2.63c.878.01 1.766.01 2.643.021v2.63h2.612v2.62h2.58v2.525h2.58v-2.557h2.55v-2.599H28.56v-2.588h5.077v-2.598h-2.56v-2.599c-.908.01-1.733.01-2.559.01Zm-7.804 18.118v-5.094h2.601v5.094h2.57v-2.567h2.549V28.46h-2.58v-2.598h-2.58v-2.526h-2.602v2.567h-2.611v2.599h-2.507v2.578h2.538v2.546c.898-.01 1.713-.01 2.622-.01Z" fill="#B9B9B9"/><path d="M5.108 5.145H7.71V.031h2.58c.021 3.417.053 6.843.074 10.26-3.458 0-6.905.01-10.363.01V7.765h5.108v-2.64c.01.01 0 .02 0 .02ZM38.84 38.927h2.59v2.474H44v2.578h-2.538v-2.526H38.85v-2.536c.01 0-.01.01-.01.01Z" fill="#B9B9B9"/><path d="M2.497 2.557h2.611v2.588l.01-.01h-2.61V2.547l-.011.01Zm38.985 0V.021H44v2.526h-2.528c0-.01.01.01.01.01ZM2.507 2.536H.01V.01h2.487v2.537c0 .01.01-.01.01-.01Zm26.022 12.952v2.63h-2.633v2.567h-2.611v-2.547h2.58v-2.65h2.664Z" fill="#B9B9B9"/></svg>
